assets/img/logo.svg

<svg width="103" height="43" viewBox="0 0 103 43" fill="none" xmlns="http://www.w3.org/2000/svg">
<path d="M102.472 26.5208C101.89 26.0893 101.066 26.2085 100.631 26.789C99.7163 28.0147 97.9956 29.4762 97.2705 29.0736C96.3936 28.5835 97.0452 26.6753 97.9866 24.2355C98.904 21.8454 99.7747 19.5904 98.869 17.8538C98.4336 17.019 97.6708 16.4619 96.5983 16.1965C93.9862 15.5485 91.6015 16.5495 88.2356 20.7162L88.2294 20.7217C87.987 21.0195 87.5132 20.7658 87.6244 20.4004L88.0804 18.9182C88.2589 18.3405 88.0426 17.7187 87.5427 17.3747C87.0429 17.0307 86.3857 17.0534 85.9092 17.4271C85.5556 17.7042 84.1205 18.457 82.8673 18.2881C82.3242 18.2151 81.871 17.9758 81.4913 17.5526V17.547C81.4357 17.4829 81.3801 17.4161 81.3272 17.3457C80.8946 16.7653 80.0706 16.6426 79.4863 17.0776C79.2817 17.2292 79.1327 17.4333 79.0448 17.658C79.0386 17.6725 79.0331 17.6904 79.0269 17.7104C78.7756 18.3964 78.5188 19.2278 78.2442 20.1033C76.5468 25.5626 74.7258 30.4179 71.1408 29.7617C70.656 29.6741 70.3518 29.4494 70.1211 29.0088C68.9229 26.7035 70.6794 20.783 71.8391 18.2709C72.1488 17.5967 71.927 16.8004 71.3076 16.3744C70.7116 15.9628 69.911 16.0387 69.4084 16.5522C68.7245 17.2554 67.1054 17.9586 65.5982 17.9324C64.6046 17.9117 63.8129 17.5939 63.243 16.9838C62.0187 15.3762 60.1105 14.5151 57.7903 14.5151C57.5651 14.5151 57.3344 14.5206 57.1009 14.5385C56.4198 14.5882 55.7681 14.7226 55.1515 14.9267C54.7691 15.0549 54.4031 14.693 54.5377 14.3138L57.8803 4.86571C58.1226 4.18322 57.7635 3.43316 57.0796 3.19119C56.3957 2.95197 55.6445 3.30769 55.4021 3.99088L51.3873 15.3327C51.3873 15.3327 51.3873 15.3355 51.3846 15.3382C50.6128 16.9521 49.5286 17.9179 48.2493 18.1275C47.0862 18.3198 45.7451 17.8766 44.7426 16.9776C43.5183 15.3727 41.6101 14.5151 39.2927 14.5151C39.0675 14.5151 38.8368 14.5206 38.6033 14.5385C34.331 14.8419 31.3125 18.466 30.3745 22.4079C30.1205 23.4758 29.6735 24.4885 29.0184 25.3695C26.8733 28.2409 24.904 29.5452 22.7885 29.5452C20.4683 29.5452 19.0716 26.3209 18.3294 23.9866C18.1481 23.4144 18.5079 22.805 19.1005 22.7085C26.9846 21.4069 32.0163 14.6144 31.879 8.46019C31.7629 3.32079 28.0784 0 22.4911 0C13.6142 0 8.21711 4.98084 5.25423 9.16199C1.37947 14.6275 0 20.9506 0 25.0469C0 29.6314 1.60126 32.3682 4.28399 32.3682C7.46592 32.3682 10.321 28.9337 13.0065 21.8695C14.8563 17.0114 15.9254 12.2374 15.9694 12.0361C16.1273 11.3301 15.6803 10.6297 14.9703 10.4718C14.2603 10.3112 13.5592 10.7607 13.4013 11.4701C11.7156 19.0568 7.77354 29.7417 4.28468 29.7417C3.32612 29.7417 2.63055 27.7666 2.63055 25.0469C2.63055 21.3559 3.88436 15.6429 7.40206 10.6793C10.0058 7.00558 14.7361 2.62589 22.4918 2.62589C28.4732 2.62589 29.2093 6.74568 29.2505 8.52017C29.3555 13.2211 25.1622 19.9261 17.0131 20.2908C16.4287 20.3143 15.8938 20.6003 15.5464 21.0726C15.1989 21.5427 15.085 22.1377 15.234 22.7064L15.2752 22.8643C15.8801 25.1669 17.7182 32.1724 22.7878 32.1724C25.7802 32.1724 28.1264 30.4745 29.9969 28.347C30.2159 28.0988 30.6107 28.1692 30.7453 28.4725C31.8179 30.9384 34.103 32.3855 37.1009 32.3855C37.3145 32.3855 37.5335 32.38 37.7553 32.3648C40.7882 32.1573 43.4243 30.2056 44.9933 27.0048C45.9134 25.1227 46.3137 23.0656 46.1942 21.1863C46.1763 20.9002 46.4311 20.6782 46.7147 20.7224C47.0415 20.772 47.3691 20.7982 47.6966 20.7982C48.0241 20.7982 48.3571 20.772 48.6812 20.7196H48.6902C49.0294 20.6645 49.3006 20.9912 49.19 21.318C48.7018 22.7416 48.4855 24.2445 48.5879 25.677C48.8769 29.8113 51.6009 32.3855 55.6006 32.3855C55.8169 32.3855 56.0332 32.38 56.255 32.3648C59.2879 32.1573 61.9267 30.2056 63.4929 27.0048C64.4453 25.0648 64.8401 22.9401 64.6794 21.0147C64.6561 20.743 64.8868 20.5218 65.1587 20.5417C65.2871 20.5507 65.4155 20.5562 65.5474 20.559C66.2079 20.5735 66.9001 20.4921 67.575 20.3315C67.9026 20.2529 68.1916 20.5617 68.0955 20.8858C67.207 23.926 66.5464 27.8389 67.7858 30.2201C68.388 31.3783 69.3843 32.1138 70.667 32.3441C72.0781 32.6006 73.3813 32.3965 74.5651 31.7367C74.9215 31.5382 75.3369 31.8712 75.2167 32.2593C73.5427 37.6717 71.9558 40.4437 69.4249 40.3714C66.5876 40.301 66.2951 36.9134 66.2718 36.5197C66.2313 35.7993 65.6174 35.2506 64.8895 35.2823C64.1645 35.3202 63.6069 35.9386 63.6447 36.6624C63.7586 38.8071 65.0997 42.889 69.3576 42.9972C69.4132 42.9972 69.4654 43 69.521 43C73.209 43 75.067 39.8136 76.1513 37.4008C77.6152 34.1324 78.7811 29.5162 80.2567 23.6778C80.4785 22.794 80.7065 21.895 80.9434 20.9699C81.0107 20.71 81.2853 20.5673 81.5366 20.6576C81.849 20.7686 82.1793 20.8471 82.5185 20.894C83.0472 20.9643 83.5677 20.9526 84.0614 20.8885C84.3862 20.8451 84.6458 21.1484 84.5496 21.4607L81.9143 30.0333C81.7097 30.7247 82.0605 31.4513 82.7293 31.7202C82.9017 31.7905 83.0802 31.8222 83.2553 31.8222C83.7607 31.8222 84.24 31.5479 84.4858 31.0749C89.0499 22.3507 93.8043 18.2095 95.9638 18.75C96.2735 18.8259 96.4637 18.9341 96.5337 19.0678C96.8928 19.7565 96.1039 21.802 95.5312 23.2931C94.4271 26.1617 93.0531 29.7299 95.9871 31.3672C99.0791 33.0948 102.375 28.8523 102.74 28.3615C103.173 27.7803 103.053 26.9579 102.472 26.5229L102.475 26.5201L102.472 26.5208ZM42.6271 25.8528C42.0867 26.9558 40.5115 29.5466 37.5747 29.7451C35.8773 29.8561 32.9838 29.459 32.7091 25.4936C32.6858 25.1489 32.6796 24.8111 32.6947 24.4809C32.7009 24.3527 32.7064 24.2272 32.7181 24.1045C33.0538 20.1798 35.9762 17.3581 38.7873 17.1603C40.3563 17.0493 41.5635 17.4167 42.3758 18.2571C42.5158 18.3971 42.6387 18.5515 42.7527 18.7183C42.7617 18.7273 42.7671 18.7355 42.7733 18.7445C43.9132 20.428 43.8514 23.3517 42.6271 25.8528ZM61.1274 25.8528C60.587 26.9558 59.0119 29.5466 56.0751 29.7451C54.3715 29.8561 51.4848 29.459 51.2067 25.4936C50.8854 20.8602 54.1524 17.3816 57.2849 17.1603C59.0613 17.0348 60.3707 17.5222 61.1768 18.6135C61.2091 18.6576 61.2414 18.7011 61.2702 18.7445C62.4101 20.428 62.3517 23.3517 61.1274 25.8528Z" fill="white" style="fill:white;fill-opacity:1;"/>
</svg>

<svg xmlns="http://www.w3.org/2000/svg" width="103" height="43" fill="none"><path fill="#fff" d="M102.472 26.52a1.32 1.32 0 0 0-1.841.269c-.915 1.226-2.635 2.687-3.36 2.285-.877-.49-.226-2.399.716-4.839.917-2.39 1.788-4.645.882-6.381-.435-.835-1.198-1.392-2.27-1.657-2.613-.648-4.998.352-8.363 4.52l-.007.005c-.242.297-.716.044-.605-.322l.456-1.482a1.38 1.38 0 0 0-.537-1.543 1.375 1.375 0 0 0-1.634.052c-.353.277-1.788 1.03-3.042.861a2.17 2.17 0 0 1-1.376-.735v-.006a4 4 0 0 1-.164-.201 1.316 1.316 0 0 0-2.282.312q-.009.022-.018.052c-.251.686-.508 1.518-.783 2.393-1.697 5.46-3.518 10.315-7.103 9.659-.485-.088-.79-.313-1.02-.753-1.198-2.306.558-8.226 1.718-10.738.31-.674.088-1.47-.531-1.897a1.48 1.48 0 0 0-1.9.178c-.683.703-2.303 1.407-3.81 1.38-.993-.02-1.785-.338-2.355-.948-1.224-1.608-3.133-2.469-5.453-2.469a9 9 0 0 0-.69.024 8 8 0 0 0-1.949.388.482.482 0 0 1-.613-.613l3.342-9.448a1.31 1.31 0 0 0-.8-1.675 1.317 1.317 0 0 0-1.678.8l-4.015 11.342-.002.005c-.772 1.614-1.856 2.58-3.136 2.79-1.163.192-2.504-.251-3.506-1.15-1.225-1.605-3.133-2.463-5.45-2.463a9 9 0 0 0-.69.024c-4.272.303-7.29 3.927-8.228 7.869a8.1 8.1 0 0 1-1.357 2.961c-2.145 2.872-4.114 4.176-6.23 4.176-2.32 0-3.716-3.224-4.459-5.558a.988.988 0 0 1 .771-1.278c7.885-1.302 12.916-8.095 12.779-14.249-.116-5.14-3.8-8.46-9.388-8.46C13.614 0 8.217 4.98 5.254 9.162 1.38 14.627 0 20.951 0 25.047c0 4.584 1.601 7.321 4.284 7.321 3.182 0 6.037-3.434 8.723-10.499 1.85-4.858 2.918-9.632 2.962-9.833a1.31 1.31 0 0 0-.999-1.564 1.31 1.31 0 0 0-1.569.998c-1.685 7.587-5.627 18.272-9.116 18.272-.959 0-1.654-1.975-1.654-4.695 0-3.691 1.253-9.404 4.771-14.368 2.604-3.673 7.334-8.053 15.09-8.053 5.981 0 6.717 4.12 6.758 5.894.105 4.701-4.088 11.406-12.237 11.77a1.91 1.91 0 0 0-1.467.783 1.92 1.92 0 0 0-.312 1.633l.041.158c.605 2.303 2.443 9.308 7.513 9.308 2.992 0 5.338-1.697 7.209-3.825a.45.45 0 0 1 .748.125c1.073 2.466 3.358 3.913 6.356 3.913q.321.001.654-.02c3.033-.208 5.67-2.16 7.238-5.36.92-1.882 1.32-3.94 1.201-5.819a.446.446 0 0 1 .52-.464q.492.075.983.076c.327 0 .66-.026.984-.078h.01c.338-.055.61.271.499.598-.488 1.424-.704 2.926-.602 4.359.289 4.134 3.013 6.709 7.013 6.709q.323 0 .654-.021c3.033-.208 5.672-2.16 7.238-5.36.952-1.94 1.347-4.065 1.186-5.99a.442.442 0 0 1 .48-.473q.191.013.388.017a8 8 0 0 0 2.028-.228.44.44 0 0 1 .52.555c-.888 3.04-1.549 6.953-.31 9.334.603 1.158 1.6 1.894 2.882 2.124 1.411.257 2.714.053 3.898-.607a.45.45 0 0 1 .652.522c-1.674 5.413-3.261 8.185-5.792 8.112-2.837-.07-3.13-3.458-3.153-3.851a1.315 1.315 0 0 0-2.627.143c.114 2.144 1.455 6.226 5.713 6.334q.08.002.163.003c3.688 0 5.546-3.186 6.63-5.6 1.464-3.268 2.63-7.884 4.106-13.722.221-.884.45-1.783.686-2.708a.453.453 0 0 1 .594-.312c.312.11.642.19.981.236.53.07 1.05.059 1.543-.005a.446.446 0 0 1 .489.572l-2.636 8.572a1.39 1.39 0 0 0 .815 1.687 1.39 1.39 0 0 0 1.757-.645C89.05 22.35 93.804 18.21 95.964 18.75q.465.116.57.318c.359.688-.43 2.734-1.003 4.225-1.104 2.869-2.478 6.437.456 8.074 3.092 1.728 6.388-2.515 6.753-3.006a1.315 1.315 0 0 0-.268-1.838l.003-.003zm-59.845-.667c-.54 1.103-2.116 3.694-5.052 3.892-1.698.111-4.591-.286-4.866-4.251a9 9 0 0 1-.014-1.013c.006-.128.011-.254.023-.377.336-3.924 3.258-6.746 6.07-6.944 1.568-.11 2.776.257 3.588 1.097.14.14.263.294.377.461q.012.014.02.026c1.14 1.684 1.078 4.608-.146 7.109m18.5 0c-.54 1.103-2.115 3.694-5.052 3.892-1.704.111-4.59-.286-4.868-4.251-.322-4.634 2.945-8.112 6.078-8.334 1.776-.125 3.086.362 3.892 1.453q.049.067.093.131c1.14 1.684 1.082 4.608-.143 7.109" style="fill:#fff;fill-opacity:1"/></svg>
